X:108
T:Kerry Cow, The
R:polka
H:See also #23, reel#195, slide#76
D:Sean Ryan: Siuil Uait
Z:id:hn-polka-108
M:2/4
L:1/8
K:D
A>B AF|Ad cA|G>A GE|FG AF|A>B AF|Ad c>B|AF GE|D2 D2:|
|:d>e fd|cA A~A|BG G~G|BA AF|d/c/d/e/ fd|cA AF|GB AF|1 D2 D2:|2 DE FG||

